justvector/ebay.svg

<?xml version="1.0" encoding="iso-8859-1"?>
<!-- Generator: Adobe Illustrator 15.0.0, SVG Export Plug-In . SVG Version: 6.00 Build 0)  -->
<!DOCTYPE svg PUBLIC "-//W3C//DTD SVG 1.1//EN" "http://www.w3.org/Graphics/SVG/1.1/DTD/svg11.dtd">
<svg version="1.1" id="Icons" xmlns="http://www.w3.org/2000/svg" xmlns:xlink="http://www.w3.org/1999/xlink" x="0px" y="0px"
	 width="100px" height="100px" viewBox="0 0 100 100" style="enable-background:new 0 0 100 100;" xml:space="preserve">
<path id="eBay" style="fill-rule:evenodd;clip-rule:evenodd;" d="M85.791,30.5l-7.012,15.074L72.291,30.5h-9.942l1.675,3.373
	c-0.941-0.105-1.989-0.211-3.141-0.211c-2.616,0-4.919,0.422-6.486,1.688c-1.676,1.054-2.617,3.056-2.617,6.114h6.906
	c0-2.003,0.105-3.9,2.617-3.9s2.825,1.581,2.825,3.689v2.002c-3.977-0.106-7.849,0-10.256,1.896c-1.047-1.053-2.408-1.686-4.5-1.686
	c-2.512,0-4.187,0.739-5.651,2.846h-0.105V33.136h-6.906v11.91c-1.046-0.527-2.303-0.842-3.767-1.16
	c-2.408-0.527-5.548-0.842-9.524-0.842C6.779,43.044,5,48.208,5,54.217c0,6.957,2.094,11.806,18.418,11.806
	c3.768,0,7.013-0.423,9.628-0.951c1.36-0.315,2.617-0.737,3.663-1.265v5.167h6.594v-2.741h0.104c1.257,2.424,3.14,3.267,5.86,3.267
	c5.757,0,6.697-5.165,6.908-9.803c0.522,0.106,1.046,0.106,1.674,0.106c3.034,0,5.023-1.266,6.488-3.794h0.105l0.313,3.373h6.49
	c-0.105-1.581-0.314-3.162-0.314-4.743v-6.641l2.824,5.798v12.332h9.105V53.796L95,30.5H85.791z M23.418,46.838
	c6.07,0,5.861,3.058,5.861,5.166H17.767C17.767,50.212,17.663,46.838,23.418,46.838z M33.046,58.012h-0.104H28.86
	c0,1.896-0.942,4.004-5.442,4.004c-5.545,0-5.651-3.9-5.651-6.535h18.942v2.53H33.046z M49.372,56.22
	c0,6.324-0.418,8.959-2.93,8.959c-2.408,0-2.827-2.635-2.827-8.959c0-4.954,0-8.433,2.827-8.433
	C49.477,47.787,49.372,51.266,49.372,56.22z M60.674,55.481c-2.302,0-2.616-2.213-2.616-4.005c0-4.428,2.616-4.111,6.07-4.322
	C64.128,49.896,64.755,55.481,60.674,55.481z"/>
</svg>

<?xml version="1.0" encoding="UTF-8" standalone="no"?>
<!DOCTYPE svg PUBLIC "-//W3C//DTD SVG 1.1//EN" "http://www.w3.org/Graphics/SVG/1.1/DTD/svg11.dtd">
<svg width="100%" height="100%" viewBox="0 0 100 100" version="1.1" xmlns="http://www.w3.org/2000/svg" xmlns:xlink="http://www.w3.org/1999/xlink" xml:space="preserve" xmlns:serif="http://www.serif.com/" style="fill-rule:evenodd;clip-rule:evenodd;stroke-linejoin:round;stroke-miterlimit:2;">
    <g id="eBay" transform="matrix(2.16299,0,0,2.16299,-43.7206,-62.8976)">
        <path d="M57.849,59.803C60.883,59.803 56.279,43.255 53.872,45.151C52.825,44.098 51.464,43.465 49.372,43.465C46.86,43.465 45.185,44.204 43.721,46.311L43.616,46.311L43.616,33.136L36.71,33.136L36.71,45.046C35.664,44.519 34.407,44.204 32.943,43.886C30.535,43.359 30.431,65.6 33.046,65.072C34.406,64.757 35.663,64.335 36.709,63.807L36.709,68.974L43.303,68.974L43.303,66.233L43.407,66.233C44.664,68.657 46.547,69.5 49.267,69.5C55.024,69.5 55.964,64.335 56.175,59.697C56.697,59.803 57.221,59.803 57.849,59.803ZM33.046,58.012L32.942,58.012L36.709,55.481L36.709,58.011L33.046,58.011L33.046,58.012ZM49.372,56.22C49.372,62.544 48.954,65.179 46.442,65.179C44.034,65.179 43.615,62.544 43.615,56.22C43.615,51.266 43.615,47.787 46.442,47.787C49.477,47.787 49.372,51.266 49.372,56.22Z" style="fill:rgb(255,0,0);"/>
    </g>
</svg>
